images/icons/stones.svg

<svg height="32pt" viewBox="0 0 32 32" width="32pt" xmlns="http://www.w3.org/2000/svg"><g fill="#fff"><path d="m8.421875 28.761719-8.296875-13.765625-.125-.21875v9.546875l8.152344 4.773437.582031.34375zm0 0"/><path d="m5.648438 20.527344 3.96875 6.589844 6.730468-9.675782zm0 0"/><path d="m5.570312 7.78125-.734374-.539062-3.828126 5.53125.738282 1.277343 2.902344 4.816407 11.835937-3.417969zm0 0"/><path d="m15.144531 2.285156-.167969-.703125-8.757812 4.351563.453125.332031 10.609375 7.453125zm0 0"/><path d="m20.210938 29.410156-2.097657-11.226562-7.464843 10.734375-.648438.886719 1.125.066406 8.644531.511718.621094.035157zm0 0"/><path d="m16.910156 1.609375.074219.308594 4.605469 24.664062 6.132812-12.460937.5625-1.199219zm0 0"/><path d="m29.609375 14.511719-.199219.429687-7.242187 14.71875-.160157.441406.214844-.144531 7.074219-4.792969 2.703125-5.707031zm0 0"/></g></svg>

<?xml version="1.0" encoding="UTF-8"?>
<svg xmlns="http://www.w3.org/2000/svg" xmlns:xlink="http://www.w3.org/1999/xlink" width="32pt" height="32pt" viewBox="0 0 32 32" version="1.1">
<g id="surface1">
<path style=" stroke:none;fill-rule:nonzero;fill:rgb(255%,255%,255%);fill-opacity:1;" d="M 8.421875 28.761719 L 0.125 14.996094 L 0 14.777344 L 0 24.324219 L 8.152344 29.097656 L 8.734375 29.441406 Z M 8.421875 28.761719 "/>
<path style=" stroke:none;fill-rule:nonzero;fill:rgb(255%,255%,255%);fill-opacity:1;" d="M 5.648438 20.527344 L 9.617188 27.117188 L 16.347656 17.441406 Z M 5.648438 20.527344 "/>
<path style=" stroke:none;fill-rule:nonzero;fill:rgb(255%,255%,255%);fill-opacity:1;" d="M 5.570312 7.78125 L 4.835938 7.242188 L 1.007812 12.773438 L 1.746094 14.050781 L 4.648438 18.867188 L 16.484375 15.449219 Z M 5.570312 7.78125 "/>
<path style=" stroke:none;fill-rule:nonzero;fill:rgb(255%,255%,255%);fill-opacity:1;" d="M 15.144531 2.285156 L 14.976562 1.582031 L 6.21875 5.933594 L 6.671875 6.265625 L 17.28125 13.71875 Z M 15.144531 2.285156 "/>
<path style=" stroke:none;fill-rule:nonzero;fill:rgb(255%,255%,255%);fill-opacity:1;" d="M 20.210938 29.410156 L 18.113281 18.183594 L 10.648438 28.917969 L 10 29.804688 L 11.125 29.871094 L 19.769531 30.382812 L 20.390625 30.417969 Z M 20.210938 29.410156 "/>
<path style=" stroke:none;fill-rule:nonzero;fill:rgb(255%,255%,255%);fill-opacity:1;" d="M 16.910156 1.609375 L 16.984375 1.917969 L 21.589844 26.582031 L 27.722656 14.121094 L 28.285156 12.921875 Z M 16.910156 1.609375 "/>
<path style=" stroke:none;fill-rule:nonzero;fill:rgb(255%,255%,255%);fill-opacity:1;" d="M 29.609375 14.511719 L 29.410156 14.941406 L 22.167969 29.660156 L 22.007812 30.101562 L 22.222656 29.957031 L 29.296875 25.164062 L 32 19.457031 Z M 29.609375 14.511719 "/>
</g>
</svg>
